X:904
T:The road to the isles
R:March
O:Scotland
S:IrTrad, 22 Sep 1999 ,H. Speek
Z:Transcription, chords:Mike Long
M:C
L:1/8
K:D
A>d|:\
"D"f4 a>fe>f|"G"d>ed>c B2 d>c|"G"B>GB>c "(D)"d>e f<a|"A"e6 A>d|\
"D"f4 a>fe>f|"G"d>ed>c B2 g2|
"D"f>af>d "A"A>c e<c|[1 "D"d6 A>d:|[2 "D"d6 fg\
|:"D"a>AA>A f>AA>A|"G"d>ed>c B2 d>c|"G"B>GB>c "(D)"d>e f<a|
"A"e6 f>g|\
"D"a>AA>A f>AA>A|"G"d>ed>c B2 g2|"D"f>af>d "A"A>c e<c|[1 "D"d6 fg:|[2 "D"d6|]
